icons/fill-new-container-box-present.svg

<svg xmlns="http://www.w3.org/2000/svg" width="32px" height="32px" viewBox="0 0 32 32" version="1.1">
    <title>fill-new-container-box-present</title>
    <g id="fill-new-container-box-present" stroke-width="1" fill-rule="evenodd">
        <path d="M15,20 L15,30 L5,30 C4.44771525,30 4,29.5522847 4,29 L4,20 L15,20 Z M28,20 L28,29 C28,29.5522847 27.5522847,30 27,30 L17,30 L17,20 L28,20 Z M19,2 C21.209139,2 23,3.790861 23,6 C23,6.7290322 22.8049665,7.41251188 22.4642293,8.00110922 L29,8 C29.5522847,8 30,8.44771525 30,9 C30,9.55228475 29.5522847,10 29,10 L28,10 L28,18 L17,18 L17,11 C17,10.4871642 16.6139598,10.0644928 16.1166211,10.0067277 L16,10 C15.4477153,10 15,10.4477153 15,11 L15,18 L4,18 L4,10 L3,10 C2.44771525,10 2,9.55228475 2,9 C2,8.44771525 2.44771525,8 3,8 L9.53577067,8.00110922 C9.1950335,7.41251188 9,6.7290322 9,6 C9,3.790861 10.790861,2 13,2 C14.1952121,2 15.2679883,2.52421057 16.0009561,3.35525927 C16.7320117,2.52421057 17.8047879,2 19,2 Z M13,4 C11.8954305,4 11,4.8954305 11,6 C11,7.1045695 11.8954305,8 13,8 C14.1045695,8 15,7.1045695 15,6 C15,4.8954305 14.1045695,4 13,4 Z M19,4 C17.8954305,4 17,4.8954305 17,6 C17,7.1045695 17.8954305,8 19,8 C20.1045695,8 21,7.1045695 21,6 C21,4.8954305 20.1045695,4 19,4 Z" id="&#24418;&#29366;" fill-rule="nonzero" />
    </g>
</svg>

<svg xmlns="http://www.w3.org/2000/svg" viewBox="0 0 32 32"><path fill="currentColor" d="M15 20v10H5a1 1 0 0 1-1-1v-9zm13 0v9a1 1 0 0 1-1 1H17V20zM19 2a4 4 0 0 1 3.464 6.001L29 8a1 1 0 0 1 0 2h-1v8H17v-7a1 1 0 0 0-.883-.993L16 10a1 1 0 0 0-1 1v7H4v-8H3a1 1 0 1 1 0-2l6.536.001A4 4 0 0 1 16 3.355 3.983 3.983 0 0 1 19 2m-6 2a2 2 0 1 0 0 4 2 2 0 0 0 0-4m6 0a2 2 0 1 0 0 4 2 2 0 0 0 0-4"/></svg>
